X: 609
T: Princess Royal
P: Longways for as many as will
%R: jig
B: "The Compleat Country Dancing-Master" printed by John Walsh, London ca. 1740
S: 6: CCDM1 http://imslp.org/wiki/The_Compleat_Country_Dancing-Master_(Various) V.1 p.26 #54
Z: 2013 John Chambers <jc:trillian.mit.edu>
N: Repeats added to satisfy the "Each Strain twice" instruction.
M: 6/8
L: 1/8
K: G
% - - - - - - - - - - - - - - - - - - - - - - - - -
D |\
G2G G>AB | A2A A>Bc | B2B B>cd | A2A A2D |\
G.G G>AB | A2A A>Bc | B>cd A>GF | G2G G2 :|
|: B/c/ |\
d>ed d>gd | c>dc c>ac | B>cB B>cd | A2A A2B/c/ |\
d>ed d>gd | c>dc c>ac | B>cd A>GF | G2G G2 :|
% - - - - - - - - - - - - - - - - - - - - - - - - -
%%center Each Strain twice.
%%begintext align
%% First figure single, and right Hands and left, then
%% figure single with the next Cu. and right Hands and left,
%% then cast up 1st Cu. and change the Man into the Wo.
%% Place, then cast up at Top, and change again .| Then
%% you will be in your own Places, then right Hand and
%% left 'till you come below, then lead thro' the 1st Cu.
%% then you'l come right.
%%endtext

%%sep 1 1 500
%%sep 1 1 500
